src/icons/svg/basic.svg

<?xml version="1.0" encoding="UTF-8"?>
<svg width="40px" height="40px" viewBox="0 0 40 40" version="1.1" xmlns="http://www.w3.org/2000/svg"
>
    <path d="M14.1544772,17.9867221 L3.82792681,17.9867221 C1.71480767,17.9843424 0.00237964093,16.2719144 -1.49811495e-15,14.1587953 L-1.49811495e-15,3.83008582 C0.00118962327,1.71612359 1.71396558,0.00238159493 3.82792681,0 L14.1544772,0 C16.2692817,0.00119110387 17.983372,1.7152814 17.9845631,3.83008582 L17.9845631,14.1587953 C17.9821815,16.2727565 16.2684395,17.9855325 14.1544772,17.9867221 Z M4.43892697,13.5542721 L13.5499541,13.5542721 L13.5499541,4.43460895 L4.43244994,4.43460895 L4.43892697,13.5542721 Z M36.1720732,17.9867221 L25.8433637,17.9867221 C23.7302446,17.9843424 22.0178166,16.2719144 22.0154369,14.1587953 L22.0154369,3.83008582 C22.0178166,1.71696668 23.7302446,0.0045386521 25.8433637,0.00215901117 L36.1720732,0.00215901117 C38.2851923,0.0045386521 39.9976204,1.71696668 40,3.83008582 L40,14.1587953 C39.9976204,16.2719144 38.2851923,17.9843424 36.1720732,17.9867221 L36.1720732,17.9867221 Z M26.4565229,13.5542721 L35.5761861,13.5542721 L35.5761861,4.43460895 L26.4478869,4.43460895 L26.4565229,13.5542721 Z M14.1544772,40.002159 L3.82792681,40.002159 C1.71480767,39.9997794 0.00237964093,38.2873513 -1.49811495e-15,36.1742322 L-1.49811495e-15,25.8455228 C0.00237964093,23.7324036 1.71480767,22.0199756 3.82792681,22.0175959 L14.1544772,22.0175959 C16.2675964,22.0199756 17.9800244,23.7324036 17.9824041,25.8455228 L17.9824041,36.1742322 C17.9800244,38.2873513 16.2675964,39.9997794 14.1544772,40.002159 Z M4.43892697,35.5697091 L13.5499541,35.5697091 L13.5499541,26.4500459 L4.43244994,26.4500459 L4.43892697,35.5697091 Z M36.1720732,40.002159 L25.8433637,40.002159 C23.7302446,39.9997794 22.0178166,38.2873513 22.0154369,36.1742322 L22.0154369,25.8455228 C22.0178166,23.7324036 23.7302446,22.0199756 25.8433637,22.0175959 L36.1720732,22.0175959 C38.2851923,22.0199756 39.9976204,23.7324036 40,25.8455228 L40,36.1742322 C39.9976204,38.2873513 38.2851923,39.9997794 36.1720732,40.002159 L36.1720732,40.002159 Z M26.4565229,35.5697091 L35.5761861,35.5697091 L35.5761861,26.4500459 L26.4478869,26.4500459 L26.4565229,35.5697091 Z"
          id="形状"></path>
</svg>

<svg width="40" height="40" xmlns="http://www.w3.org/2000/svg"><path d="M14.154 17.987H3.828A3.832 3.832 0 0 1 0 14.159V3.83A3.832 3.832 0 0 1 3.828 0h10.326a3.832 3.832 0 0 1 3.83 3.83V14.16a3.832 3.832 0 0 1-3.83 3.828zM4.44 13.554h9.111v-9.12H4.432l.007 9.12zm31.733 4.433H25.843a3.832 3.832 0 0 1-3.828-3.828V3.83A3.832 3.832 0 0 1 25.843.002h10.33A3.832 3.832 0 0 1 40 3.83V14.16a3.832 3.832 0 0 1-3.828 3.828zm-9.715-4.433h9.12v-9.12h-9.13l.01 9.12zM14.154 40.002H3.828A3.832 3.832 0 0 1 0 36.174V25.846a3.832 3.832 0 0 1 3.828-3.828h10.326a3.832 3.832 0 0 1 3.828 3.828v10.328a3.832 3.832 0 0 1-3.828 3.828zM4.44 35.57h9.111v-9.12H4.432l.007 9.12zm31.733 4.432H25.843a3.832 3.832 0 0 1-3.828-3.828V25.846a3.832 3.832 0 0 1 3.828-3.828h10.33A3.832 3.832 0 0 1 40 25.846v10.328a3.832 3.832 0 0 1-3.828 3.828zm-9.715-4.432h9.12v-9.12h-9.13l.01 9.12z"/></svg>
